X:1
T:Title
%%score { ( 1 4 ) | ( 2 3 ) }
L:1/8
Q:1/4=100
M:4/4
K:E
V:1 treble nm="Grand Piano"
V:4 treble 
V:2 bass 
V:3 bass 
V:1
 [B,G]3 E AG [A,F]>G | F4 [G,E]4 | [A,F]3 G BB A>A | [B,G]6 z2 | B3 e eB d>c | B4 G4 | %6
w: Mrs.~C.~H.~Morris * * * * *||||||
 [A,F]3 G BA G>=G | G6 z2 | B3 e eB d>c | B4 G4 | [A,F]3 G BA G>F | E6 z2 | %12
w: ||||||
 [DF]3 [EG] [FA]>[^EG] [FA]>[DAc] | [EGB]4 [B,EG]4 | [DF]3 [EG] [FA]>[^EG] [FA]>[DAc] | [EGB]6 z2 | %16
w: ||||
 [Ge]3 [Bd] [Ac][GB][FA][EG] | [Ec]4 F2 c2 | [EB]3 [EG] [DB][FA] [EG]>[DF] | E6 z2 |] %20
w: ||||
V:2
 z2 z G, CB, z z/ B,/ | A,4 E,4 | z2 z B, DD C>^B, | [E,,E,]6 z2 | G,3 G, G,G, B,>A, | G,4 B,4 | %6
 z2 z B, DC B,>^A, | [E,B,]6 z2 | G,3 G, G,G, B,>A, | G,4 B,4 | z2 z B, DC B,>A, | [E,G,]6 z2 | %12
 [B,,B,]3 [B,,B,] [B,,B,]>[B,,B,] [B,,B,]>B,, | E,4 E,4 | %14
 [B,,B,]3 [B,,B,] [B,,B,]>[B,,B,] [B,,B,]>B,, | E,6 z2 | [E,B,]3 [E,E] [E,E][E,E][E,B,][E,B,] | %17
 [A,,A,]4 [A,,A,]4 | [B,,G,]3 [B,,B,] [B,,F,][B,,F,] [B,,B,]>[B,,A,] | [E,G,]6 z2 |] %20
V:3
 [E,,E,]4 z2 B,,2- | B,,4 z4 | B,,6 z2 | x8 | E,6 z2 | E,6 z2 | B,,6 z2 | x8 | E,6 z2 | E,6 z2 | %10
 B,,6 z2 | x8 | x8 | x8 | x8 | x8 | x8 | x8 | x8 | x8 |] %20
V:4
 x8 | x8 | x8 | x8 | x8 | x8 | x8 | x8 | x8 | x8 | x8 | x8 | x8 | x8 | x8 | x8 | x8 | z4 E4 | x8 | %19
 x8 |] %20

